web-magafilio/image/home/icon-comissao.svg

<svg width="74" height="73" viewBox="0 0 74 73" fill="none" xmlns="http://www.w3.org/2000/svg">
<path d="M53.7526 65.3958V71.4792H20.2943V65.3958H24.8568H49.1901H53.7526Z" fill="#D0D7DF"/>
<path d="M46.1484 56.2708L49.1901 65.3958H24.8568L27.8984 56.2708H46.1484Z" fill="#A4B0C0"/>
<path d="M72.0026 6.08331V44.1041H2.04428V6.08331C2.04428 4.87326 2.52497 3.71277 3.38061 2.85714C4.23624 2.0015 5.39673 1.52081 6.60678 1.52081H67.4401C68.6502 1.52081 69.8107 2.0015 70.6663 2.85714C71.5219 3.71277 72.0026 4.87326 72.0026 6.08331Z" fill="#00CBA9"/>
<path d="M72.0026 44.1042V51.7084C72.0026 52.9184 71.5219 54.0789 70.6663 54.9345C69.8107 55.7902 68.6502 56.2709 67.4401 56.2709H6.60678C5.39673 56.2709 4.23624 55.7902 3.38061 54.9345C2.52497 54.0789 2.04428 52.9184 2.04428 51.7084V44.1042H72.0026Z" fill="#D0D7DF"/>
<path d="M52.2318 41.0625C63.1509 41.0625 72.0026 32.2108 72.0026 21.2916C72.0026 10.3725 63.1509 1.52081 52.2318 1.52081C41.3126 1.52081 32.4609 10.3725 32.4609 21.2916C32.4609 32.2108 41.3126 41.0625 52.2318 41.0625Z" fill="#FED049"/>
<path d="M40.0651 44.1041C40.0651 43.7008 39.9049 43.314 39.6197 43.0288C39.3344 42.7435 38.9476 42.5833 38.5443 42.5833H9.64843C9.24508 42.5833 8.85825 42.7435 8.57304 43.0288C8.28782 43.314 8.12759 43.7008 8.12759 44.1041C8.12759 44.5075 8.28782 44.8943 8.57304 45.1795C8.85825 45.4648 9.24508 45.625 9.64843 45.625H38.5443C38.9476 45.625 39.3344 45.4648 39.6197 45.1795C39.9049 44.8943 40.0651 44.5075 40.0651 44.1041Z" fill="#474C54"/>
<path d="M72.0026 38.0208C71.5993 38.0208 71.2124 38.1811 70.9272 38.4663C70.642 38.7515 70.4818 39.1383 70.4818 39.5417V51.7083C70.4818 52.515 70.1613 53.2887 69.5909 53.8591C69.0205 54.4295 68.2468 54.75 67.4401 54.75H33.9818C33.5784 54.75 33.1916 54.9102 32.9064 55.1954C32.6212 55.4807 32.4609 55.8675 32.4609 56.2708C32.4609 56.6742 32.6212 57.061 32.9064 57.3462C33.1916 57.6314 33.5784 57.7917 33.9818 57.7917H45.0534L47.7484 65.8764C47.8492 66.1791 48.0427 66.4425 48.3014 66.6292C48.5601 66.8158 48.871 66.9164 49.1901 66.9167H52.2318V69.9583H21.8151V66.9167H24.8568C25.1758 66.9164 25.4867 66.8158 25.7455 66.6292C26.0042 66.4425 26.1977 66.1791 26.2985 65.8764L29.3402 56.7514C29.4163 56.5229 29.437 56.2796 29.4007 56.0415C29.3644 55.8034 29.2721 55.5773 29.1313 55.3819C28.9905 55.1865 28.8053 55.0273 28.591 54.9174C28.3767 54.8076 28.1393 54.7502 27.8984 54.75H6.60677C5.80007 54.75 5.02641 54.4295 4.45599 53.8591C3.88556 53.2887 3.5651 52.515 3.5651 51.7083V6.08333C3.5651 5.27663 3.88556 4.50297 4.45599 3.93255C5.02641 3.36213 5.80007 3.04167 6.60677 3.04167H33.9818C34.3851 3.04167 34.772 2.88144 35.0572 2.59623C35.3424 2.31101 35.5026 1.92418 35.5026 1.52083C35.5026 1.11748 35.3424 0.730653 35.0572 0.445442C34.772 0.16023 34.3851 0 33.9818 0L6.60677 0C4.99337 0 3.44605 0.640921 2.3052 1.78177C1.16436 2.92261 0.523438 4.46993 0.523438 6.08333L0.523438 51.7083C0.523438 53.3217 1.16436 54.8691 2.3052 56.0099C3.44605 57.1507 4.99337 57.7917 6.60677 57.7917H25.7875L23.7603 63.875H20.2943C19.8909 63.875 19.5041 64.0352 19.2189 64.3204C18.9337 64.6057 18.7734 64.9925 18.7734 65.3958V69.9583H17.2526C16.8493 69.9583 16.4624 70.1186 16.1772 70.4038C15.892 70.689 15.7318 71.0758 15.7318 71.4792C15.7318 71.8825 15.892 72.2693 16.1772 72.5546C16.4624 72.8398 16.8493 73 17.2526 73H56.7943C57.1976 73 57.5845 72.8398 57.8697 72.5546C58.1549 72.2693 58.3151 71.8825 58.3151 71.4792C58.3151 71.0758 58.1549 70.689 57.8697 70.4038C57.5845 70.1186 57.1976 69.9583 56.7943 69.9583H55.2734V65.3958C55.2734 64.9925 55.1132 64.6057 54.828 64.3204C54.5428 64.0352 54.156 63.875 53.7526 63.875H50.2866L48.2594 57.7917H67.4401C69.0535 57.7917 70.6008 57.1507 71.7417 56.0099C72.8825 54.8691 73.5234 53.3217 73.5234 51.7083V39.5417C73.5234 39.1383 73.3632 38.7515 73.078 38.4663C72.7928 38.1811 72.406 38.0208 72.0026 38.0208Z" fill="#474C54"/>
<path d="M30.9401 66.9167H43.1068C43.5101 66.9167 43.897 66.7564 44.1822 66.4712C44.4674 66.186 44.6276 65.7992 44.6276 65.3958C44.6276 64.9925 44.4674 64.6057 44.1822 64.3204C43.897 64.0352 43.5101 63.875 43.1068 63.875H30.9401C30.5368 63.875 30.1499 64.0352 29.8647 64.3204C29.5795 64.6057 29.4193 64.9925 29.4193 65.3958C29.4193 65.7992 29.5795 66.186 29.8647 66.4712C30.1499 66.7564 30.5368 66.9167 30.9401 66.9167Z" fill="#474C54"/>
<path d="M52.2318 42.5833C56.4429 42.5833 60.5594 41.3346 64.0608 38.9951C67.5622 36.6555 70.2912 33.3302 71.9027 29.4396C73.5142 25.5491 73.9359 21.2681 73.1143 17.1379C72.2928 13.0077 70.2649 9.21389 67.2872 6.23619C64.3095 3.2585 60.5157 1.23067 56.3856 0.409123C52.2554 -0.412421 47.9743 0.0092255 44.0838 1.62074C40.1932 3.23226 36.8679 5.96126 34.5284 9.46266C32.1888 12.9641 30.9401 17.0806 30.9401 21.2917C30.9461 26.9367 33.1913 32.3488 37.1829 36.3405C41.1746 40.3321 46.5867 42.5773 52.2318 42.5833ZM52.2318 3.04168C55.8413 3.04168 59.3697 4.11202 62.3709 6.11736C65.3721 8.12269 67.7113 10.973 69.0926 14.3077C70.4739 17.6425 70.8353 21.3119 70.1311 24.8521C69.4269 28.3922 67.6888 31.6441 65.1365 34.1964C62.5842 36.7487 59.3323 38.4868 55.7922 39.191C52.252 39.8952 48.5825 39.5338 45.2478 38.1525C41.913 36.7712 39.0628 34.432 37.0574 31.4308C35.0521 28.4296 33.9818 24.9012 33.9818 21.2917C33.987 16.4531 35.9114 11.8142 39.3328 8.39276C42.7542 4.97135 47.3932 3.04691 52.2318 3.04168Z" fill="#474C54"/>
<path d="M49.1901 31.9375H50.7109V33.4584C50.7109 33.8617 50.8712 34.2485 51.1564 34.5337C51.4416 34.819 51.8284 34.9792 52.2318 34.9792C52.6351 34.9792 53.0219 34.819 53.3072 34.5337C53.5924 34.2485 53.7526 33.8617 53.7526 33.4584V31.9375H55.2734C56.4835 31.9375 57.644 31.4568 58.4996 30.6012C59.3552 29.7456 59.8359 28.5851 59.8359 27.375V24.3334C59.8359 23.1233 59.3552 21.9628 58.4996 21.1072C57.644 20.2515 56.4835 19.7709 55.2734 19.7709H49.1901C48.7867 19.7709 48.3999 19.6106 48.1147 19.3254C47.8295 19.0402 47.6693 18.6534 47.6693 18.25V15.2084C47.6693 14.805 47.8295 14.4182 48.1147 14.133C48.3999 13.8478 48.7867 13.6875 49.1901 13.6875H55.2734C55.6768 13.6875 56.0636 13.8478 56.3488 14.133C56.634 14.4182 56.7943 14.805 56.7943 15.2084V16.7292C56.7943 17.1325 56.9545 17.5194 57.2397 17.8046C57.5249 18.0898 57.9117 18.25 58.3151 18.25C58.7184 18.25 59.1053 18.0898 59.3905 17.8046C59.6757 17.5194 59.8359 17.1325 59.8359 16.7292V15.2084C59.8359 13.9983 59.3552 12.8378 58.4996 11.9822C57.644 11.1265 56.4835 10.6459 55.2734 10.6459H53.7526V9.12502C53.7526 8.72167 53.5924 8.33484 53.3072 8.04963C53.0219 7.76442 52.6351 7.60419 52.2318 7.60419C51.8284 7.60419 51.4416 7.76442 51.1564 8.04963C50.8712 8.33484 50.7109 8.72167 50.7109 9.12502V10.6459H49.1901C47.98 10.6459 46.8196 11.1265 45.9639 11.9822C45.1083 12.8378 44.6276 13.9983 44.6276 15.2084V18.25C44.6276 19.4601 45.1083 20.6206 45.9639 21.4762C46.8196 22.3318 47.98 22.8125 49.1901 22.8125H55.2734C55.6768 22.8125 56.0636 22.9727 56.3488 23.258C56.634 23.5432 56.7943 23.93 56.7943 24.3334V27.375C56.7943 27.7784 56.634 28.1652 56.3488 28.4504C56.0636 28.7356 55.6768 28.8959 55.2734 28.8959H49.1901C48.7867 28.8959 48.3999 28.7356 48.1147 28.4504C47.8295 28.1652 47.6693 27.7784 47.6693 27.375V25.8542C47.6693 25.4508 47.509 25.064 47.2238 24.7788C46.9386 24.4936 46.5518 24.3334 46.1484 24.3334C45.7451 24.3334 45.3582 24.4936 45.073 24.7788C44.7878 25.064 44.6276 25.4508 44.6276 25.8542V27.375C44.6276 28.5851 45.1083 29.7456 45.9639 30.6012C46.8196 31.4568 47.98 31.9375 49.1901 31.9375Z" fill="#474C54"/>
</svg>

<svg width="74" height="73" fill="none" xmlns="http://www.w3.org/2000/svg"><path d="M53.753 65.396v6.083H20.294v-6.083H53.753z" fill="#D0D7DF"/><path d="M46.148 56.27l3.042 9.126H24.857l3.041-9.125h18.25z" fill="#A4B0C0"/><path d="M72.003 6.083v38.021H2.044V6.084A4.562 4.562 0 016.607 1.52H67.44a4.562 4.562 0 014.563 4.562z" fill="#00CBA9"/><path d="M72.003 44.104v7.604a4.562 4.562 0 01-4.563 4.563H6.607a4.562 4.562 0 01-4.563-4.563v-7.604h69.959z" fill="#D0D7DF"/><path d="M52.232 41.063c10.919 0 19.77-8.852 19.77-19.771 0-10.92-8.851-19.771-19.77-19.771-10.92 0-19.771 8.852-19.771 19.77 0 10.92 8.852 19.771 19.77 19.771z" fill="#FED049"/><path d="M40.065 44.104a1.52 1.52 0 00-1.52-1.52H9.647a1.52 1.52 0 100 3.041h28.896a1.52 1.52 0 001.521-1.52z" fill="#474C54"/><path d="M72.003 38.02a1.521 1.521 0 00-1.521 1.522v12.166a3.042 3.042 0 01-3.042 3.042H33.982a1.52 1.52 0 100 3.042h11.071l2.695 8.084a1.521 1.521 0 001.442 1.04h3.042v3.042H21.815v-3.041h3.042a1.522 1.522 0 001.442-1.04l3.041-9.126a1.521 1.521 0 00-1.442-2.001H6.607a3.042 3.042 0 01-3.042-3.042V6.083a3.042 3.042 0 013.042-3.041h27.375a1.52 1.52 0 000-3.042H6.607A6.083 6.083 0 00.523 6.083v45.625a6.083 6.083 0 006.084 6.084h19.18l-2.027 6.083h-3.466a1.52 1.52 0 00-1.52 1.52v4.563h-1.521a1.521 1.521 0 000 3.042h39.541a1.52 1.52 0 100-3.042h-1.52v-4.562a1.521 1.521 0 00-1.521-1.521h-3.466l-2.028-6.083H67.44a6.084 6.084 0 006.083-6.084V39.542a1.52 1.52 0 00-1.52-1.521z" fill="#474C54"/><path d="M30.94 66.917h12.167a1.521 1.521 0 000-3.042H30.94a1.52 1.52 0 100 3.042zM52.232 42.583A21.292 21.292 0 1030.94 21.292a21.315 21.315 0 0021.292 21.291zm0-39.541a18.25 18.25 0 11-18.25 18.25 18.27 18.27 0 0118.25-18.25z" fill="#474C54"/><path d="M49.19 31.938h1.52v1.52a1.52 1.52 0 003.043 0v-1.52h1.52a4.563 4.563 0 004.563-4.563v-3.042a4.563 4.563 0 00-4.563-4.562H49.19a1.52 1.52 0 01-1.52-1.521v-3.042a1.52 1.52 0 011.52-1.52h6.083a1.52 1.52 0 011.521 1.52v1.521a1.52 1.52 0 103.042 0v-1.52a4.563 4.563 0 00-4.563-4.563h-1.52V9.125a1.52 1.52 0 10-3.042 0v1.52h-1.52a4.562 4.562 0 00-4.563 4.563v3.042a4.563 4.563 0 004.562 4.563h6.083a1.52 1.52 0 011.521 1.52v3.042a1.52 1.52 0 01-1.52 1.52H49.19a1.52 1.52 0 01-1.52-1.52v-1.52a1.52 1.52 0 00-3.042 0v1.52a4.563 4.563 0 004.562 4.563z" fill="#474C54"/></svg>
